dist/intermediate-svg/search.svg

<?xml version="1.0" encoding="utf-8"?><svg xmlns="http://www.w3.org/2000/svg" viewBox="0 0 12 13" width="12" height="13"><path d="M11.8468 11.033L8.47659 7.66277C8.93617 6.94788 9.19149 6.13086 9.19149 5.21171C9.19149 2.65852 7.14893 0.615967 4.59574 0.615967C2.04255 0.615967 0 2.65852 0 5.21171C0 7.7649 2.04255 9.80745 4.59574 9.80745C5.51489 9.80745 6.33191 9.55214 7.0468 9.09256L10.417 12.4628C10.6213 12.667 10.9276 12.667 11.1319 12.4628L11.8468 11.7479C12.0511 11.5436 12.0511 11.2372 11.8468 11.033ZM4.59574 8.27554C2.91064 8.27554 1.53191 6.89681 1.53191 5.21171C1.53191 3.5266 2.91064 2.14788 4.59574 2.14788C6.28085 2.14788 7.65957 3.5266 7.65957 5.21171C7.65957 6.89681 6.28085 8.27554 4.59574 8.27554Z" fill="var(--svg-icon-fill, #000)"/></svg>

<?xml version="1.0" encoding="utf-8"?><svg xmlns="http://www.w3.org/2000/svg" viewBox="0 0 12 13" width="12" height="13"><path d="M11.847 11.033l-3.37-3.37c.46-.715.714-1.532.714-2.451A4.577 4.577 0 004.596.616 4.577 4.577 0 000 5.212a4.577 4.577 0 004.596 4.595c.919 0 1.736-.255 2.45-.714l3.371 3.37c.204.204.51.204.715 0l.715-.715a.494.494 0 000-.715zM4.596 8.276a3.073 3.073 0 01-3.064-3.064 3.073 3.073 0 013.064-3.064A3.073 3.073 0 017.66 5.212a3.073 3.073 0 01-3.064 3.064z" class="fill"/></svg>
